X: 38174
T: Spot, The
R: hornpipe
M: 4/4
K: Cmajor
|2 c>Ge>d c>ef>^f||
[2 c2 E2 C2||
(3GAB|c>Bc>d e2 d>c|B>cd>e f2 e>d|c>Be>d f>ed>c|B<d G2 d<B g2|
c>Bc>d e2 d>c|B>cd>e f2 e>d|e>ge>c d>fd>B|1 c>Ge>d c2:|2 c>Ge>d c>ef>^f||
g>eg>e c'2 g>e|b>fa>f c'2 b>f|e<g c2 e<g c2|B<d G2 B<d G2|
g>eg>e c'>ag>e|b>fb>f c'>bg>f|e>ge>c d>fd>B|1 c>Ge>d c>ef>^f:|2 c2 E2 C2||

